X:1
T:How Can I Help but Love Him?
T:How Can I Help but Love Him?
T:Elton Menno Roth
T:Elton Menno Roth, 1921
T:Public Domain Courtesy of the Cyber Hymnal™
C:Elton Menno Roth
Z:Public Domain
Z:Courtesy of the Cyber Hymnal™
%%score 1 ( 2 3 )
L:1/8
Q:1/4=100
M:6/8
K:Bb
V:1 treble 
V:2 bass 
V:3 bass 
V:1
 [DB][EA][EG] [DF][^C=E][DF] | [EG][FA][EG] [DF]3 | [DB][EB][FB] [Fc]2 [Ec] | [DB]6 | %4
w: 1.~Down from His splen- dor in|glo- ry He came,|In- to a world of|woe;|
w: 2.~I am un- wor- thy to|take of His grace,|Won- der- ful grace so|free;|
w: 3.~He is the fair- est of|thou- sands to me,|His love is sweet and|true;|
 [DB][EA][EG] [DF][^C=E][DF] | [EG][FA][EG] [DF]3 | [=EG][EG][EG] [EA]2 [EB] | [Ec]6 || %8
w: Took on Him- self all my|guilt and my shame,|Why should He love me|so?|
w: Yes, Je- sus suf- fered and|died in my place,|E’en for a soul like|me.|
w: Won- der- ful beau- ty in|Him I now see,|More than I ev- er|knew.|
"^Refrain" [Fd]>[Fc][FB] [DF]2 [D^F] | [EG] [EG]4 [E^F]/[EG]/ | [EA]3 [EG]3 | [DF]6 | %12
w: ||||
w: How can I help but|love Him, When He|loved me|so?|
w: ||||
"^Slower" [DB][FB][EB] [=Ec]2 [E^c] | [Fd] !fermata![Fd]4 [=E^c]/[Fd]/ |!ff! [Ge]3 [Fd]3 | [DB]6 |] %16
w: ||||
w: How can I help but|love Him, When He|loved me|so?|
w: ||||
V:2
 [B,,F,][B,,G,][B,,A,] [B,,B,][B,,B,][B,,B,] | [E,B,][E,B,][E,B,] [B,,B,]3 | %2
 [B,,B,][C,B,][D,B,] [F,A,]2 F, | [B,,F,]6 | [B,,F,][B,,G,][B,,A,] [B,,B,][B,,B,][B,,B,] | %5
 [E,B,][E,B,][E,B,] [B,,B,]3 | [C,B,][C,B,][C,B,] [C,A,]2 [C,G,] | [F,A,]6 || %8
 B,>[B,E][B,D] B,2 B, | [E,B,] [E,B,]4 [E,A,]/[E,B,]/ | F,3 [F,A,]3 | B,6 | %12
 B,[_A,B,][G,B,] [G,B,]2 [_G,B,] | [F,B,] !fermata![G,=B,]4 [G,B,]/[G,B,]/ | (C2 B,) [F,A,]3 | %15
 [B,,B,]6 |] %16
V:3
 x6 | x6 | x5 F, | x6 | x6 | x6 | x6 | x6 || B,3/2 B,2 B, x3/2 | x6 | F,3 x3 | B,6 | B, x5 | x6 | %14
 C,3 x3 | x6 |] %16

